logos/opencost.svg

<svg width="280" height="280" viewBox="0 0 280 280" fill="none" xmlns="http://www.w3.org/2000/svg">
<g clip-path="url(#clip0_1560_63)">
<rect width="280" height="280" fill="white"/>
<g opacity="0.4">
<path d="M16.8584 192.473C16.8584 192.473 45.7803 149.947 98.5414 162.973C151.302 175.999 150.887 124.602 204.042 116.313C257.198 108.044 276.659 134.844 276.659 134.844L279.999 169.392L265.351 206.953L237.861 226.752L225.537 236.786L218.338 258.911L195.993 260.448L184.685 258.641L182.631 240.899L171.324 233.815L148.419 237.804L139.725 248.607L134.082 260.448H106.342L101.716 239.861L84.4538 232.34L54.4322 215.159L41.8385 205.125L28.7467 206.662L18.207 204.855L16.8584 192.432V192.473Z" fill="#416A5D"/>
</g>
<path d="M97.6901 263.44H88.2916C78.54 263.44 70.3656 256.127 69.2869 246.405L68.0418 235.124C67.6893 231.946 69.9714 229.079 73.1458 228.726C76.3202 228.352 79.1833 230.658 79.5361 233.836L80.7809 245.117C81.2165 248.96 84.4324 251.848 88.2916 251.848H97.6901C100.885 251.848 103.479 254.445 103.479 257.624C103.479 260.802 100.885 263.419 97.6901 263.419" fill="#023927"/>
<path d="M177.86 263.44H169.665C161.262 263.44 153.938 258.059 151.428 250.04L148.71 241.377C147.756 238.323 149.457 235.083 152.486 234.127C155.536 233.171 158.772 234.854 159.727 237.908L162.445 246.571C163.441 249.75 166.345 251.869 169.665 251.869H177.86C181.055 251.869 183.649 254.465 183.649 257.644C183.649 260.822 181.055 263.44 177.86 263.44Z" fill="#023927"/>
<path d="M161.468 31.78C161.468 33.1096 162.215 34.086 163.667 34.7092V29.3701C162.194 29.6402 161.468 30.4504 161.468 31.78Z" fill="#63E892"/>
<path d="M164.708 13C150.994 13 139.873 24.1353 139.873 37.8675C139.873 51.5997 150.994 62.7351 164.708 62.7351C178.422 62.7351 189.543 51.5997 189.543 37.8675C189.543 24.1353 178.422 13 164.708 13Z" fill="#023927"/>
<g opacity="0.3">
<path d="M34.1423 206.725C34.1423 206.725 19.4532 122.587 126.282 115.565C233.111 108.543 195.517 55.6298 239.003 82.2008C282.49 108.772 268.174 129.027 268.174 129.027L271.888 179.967L244.834 220.623L220.517 236.558L218.36 258.932L197.467 259.389L181.782 255.94L175.62 236.558L157.279 234.771L141.698 241.004L131.926 259.348L117.465 265.351L95.2025 260.636C95.2025 260.636 96.4888 243.767 96.4888 242.188C96.4888 240.609 79.8286 234.875 79.8286 234.875L77.007 226.856L42.3586 210.444L34.1423 206.663V206.725Z" fill="#7F9C93"/>
</g>
<path d="M209.106 267.554H186.055C180.163 267.554 175.142 263.337 174.104 257.541L172.009 245.865C171.698 244.12 170.183 242.853 168.399 242.853H146.013C144.373 242.853 142.921 243.975 142.485 245.554L138.958 258.559C137.527 263.856 132.713 267.533 127.236 267.533H105.907C100.223 267.533 95.2225 263.482 94.0399 257.894L90.7618 242.5C79.9523 240.173 49.9515 232.175 36.7352 212.937C35.6355 211.317 33.6023 210.61 31.7145 211.171L25.5731 213C22.1497 214.017 18.4567 213.519 15.4068 211.628C12.3776 209.759 10.2614 206.663 9.63895 203.131L0.198836 149.989C-0.485832 146.125 0.613785 142.261 3.24873 139.353C5.88365 136.444 9.61822 134.928 13.5395 135.26L15.7595 135.426C17.9172 135.572 19.8882 134.242 20.4691 132.227C24.3905 118.557 35.0755 93.7104 63.0845 76.3427C59.2256 73.8289 54.0387 72.2086 47.5862 71.523L43.0426 71.0451L41.7975 61.8626L46.1752 60.2007L99.4756 40.4023C103.459 38.9065 107.858 39.2805 111.551 41.4203C115.202 43.5393 117.692 47.154 118.397 51.33C120.223 62.2782 123.75 69.8193 127.858 71.5853C143.855 76.2181 188.171 84.2164 205.454 67.0356C210.413 62.1121 218.38 61.3642 224.397 65.2488C241.327 76.2596 280.602 107.796 279.751 163.078C279.689 165.321 277.552 215.409 227.322 237.264L220.745 258.953C219.189 264.105 214.521 267.575 209.126 267.575M146.054 231.302H168.44C175.827 231.302 182.113 236.579 183.42 243.85L185.516 255.526C185.557 255.796 185.806 256.003 186.097 256.003H209.147C209.417 256.003 209.624 255.837 209.707 255.588L217.882 228.643L220.454 227.604C266.037 209.26 268.153 164.698 268.215 162.808C268.962 113.426 233.442 84.9227 218.131 74.9716C216.658 74.0161 214.77 74.1407 213.649 75.2623C187.86 100.878 126.966 83.3855 124.393 82.6166L123.937 82.4712C115.389 79.1888 109.704 69.3417 107.028 53.2202C106.862 52.2024 106.177 51.6622 105.783 51.4338C105.389 51.2051 104.559 50.8728 103.542 51.2466L66.5702 64.9789C71.0931 67.3474 74.7446 70.4634 77.4834 74.3483C85.3465 85.463 82.4005 98.4263 82.2761 98.9665C81.5291 102.083 78.4169 103.994 75.3257 103.267C72.2343 102.54 70.3047 99.4444 71.0309 96.3281C71.0724 96.162 72.1513 90.9682 70.3047 85.5045C44.7646 100.878 35.1169 123.211 31.6105 135.426C29.5151 142.697 22.5024 147.58 14.8881 146.956L12.6681 146.79C12.2946 146.769 12.0042 146.956 11.8382 147.122C11.693 147.289 11.527 147.559 11.5892 147.974L21.0501 201.158C21.1123 201.511 21.3406 201.719 21.5065 201.823C21.6725 201.926 21.963 202.03 22.3157 201.926L28.4569 200.098C35.1584 198.104 42.3164 200.638 46.2792 206.393C59.4537 225.589 96.1975 231.801 96.571 231.863L100.472 232.507L105.347 255.505C105.409 255.775 105.638 255.962 105.907 255.962H127.236C127.506 255.962 127.734 255.775 127.796 255.526L131.323 242.52C133.108 235.893 139.145 231.26 146.013 231.26" fill="#023927"/>
<path d="M73.7889 131.478C73.7889 137.669 68.7885 142.676 62.6059 142.676C56.4232 142.676 51.4229 137.669 51.4229 131.478C51.4229 125.287 56.4232 120.281 62.6059 120.281C68.7885 120.281 73.7889 125.287 73.7889 131.478Z" fill="#023927"/>
</g>
<defs>
<clipPath id="clip0_1560_63">
<rect width="280" height="280" fill="white"/>
</clipPath>
</defs>
</svg>

<svg xmlns="http://www.w3.org/2000/svg" width="280" height="280" fill="none"><g clip-path="url(#a)"><path fill="#416A5D" d="M16.858 192.473s28.922-42.526 81.683-29.5 52.346-38.371 105.501-46.66c53.156-8.269 72.617 18.531 72.617 18.531l3.34 34.548-14.648 37.561-27.49 19.799-12.324 10.034-7.199 22.125-22.345 1.537-11.308-1.807-2.054-17.742-11.307-7.084-22.905 3.989-8.694 10.803-5.643 11.841h-27.74l-4.626-20.587-17.262-7.521-30.022-17.181-12.593-10.034-13.092 1.537-10.54-1.807-1.349-12.423z" opacity=".4"/><path fill="#023927" d="M97.69 263.44h-9.398c-9.752 0-17.926-7.313-19.005-17.035l-1.245-11.281c-.353-3.178 1.93-6.045 5.104-6.398 3.174-.374 6.037 1.932 6.39 5.11l1.245 11.281a7.553 7.553 0 0 0 7.51 6.731h9.4c3.194 0 5.788 2.597 5.788 5.776s-2.594 5.795-5.789 5.795m80.17.021h-8.195c-8.403 0-15.727-5.381-18.237-13.4l-2.718-8.663a5.79 5.79 0 0 1 3.776-7.25 5.765 5.765 0 0 1 7.241 3.781l2.718 8.663a7.53 7.53 0 0 0 7.22 5.298h8.195c3.195 0 5.789 2.596 5.789 5.775 0 3.178-2.594 5.796-5.789 5.796"/><path fill="#63E892" d="M161.468 31.78c0 1.33.747 2.306 2.199 2.93v-5.34c-1.473.27-2.199 1.08-2.199 2.41"/><path fill="#023927" d="M164.708 13c-13.714 0-24.835 11.135-24.835 24.868s11.121 24.867 24.835 24.867 24.835-11.135 24.835-24.867S178.422 13 164.708 13"/><path fill="#7F9C93" d="M34.142 206.725s-14.689-84.138 92.14-91.16 69.235-59.935 112.721-33.364 29.171 46.826 29.171 46.826l3.714 50.94-27.054 40.656-24.317 15.935-2.157 22.374-20.893.457-15.685-3.449-6.162-19.382-18.341-1.787-15.581 6.233-9.772 18.344-14.461 6.003-22.263-4.715s1.287-16.869 1.287-18.448-16.66-7.313-16.66-7.313l-2.822-8.019-34.648-16.412-8.217-3.781z" opacity=".3"/><path fill="#023927" d="M209.106 267.554h-23.051a12.135 12.135 0 0 1-11.951-10.013l-2.095-11.676a3.655 3.655 0 0 0-3.61-3.012h-22.387c-1.639 0-3.091 1.122-3.527 2.701l-3.527 13.005a12.15 12.15 0 0 1-11.722 8.974h-21.329c-5.684 0-10.684-4.051-11.867-9.639L90.762 242.5c-10.81-2.327-40.81-10.325-54.027-29.563-1.1-1.62-3.133-2.327-5.02-1.766L25.573 213a12.5 12.5 0 0 1-10.166-1.372 12.57 12.57 0 0 1-5.768-8.497l-9.44-53.142c-.685-3.864.415-7.728 3.05-10.636 2.635-2.909 6.37-4.425 10.29-4.093l2.22.166c2.158.146 4.13-1.184 4.71-3.199 3.921-13.67 14.606-38.517 42.616-55.884-3.86-2.514-9.046-4.134-15.499-4.82l-4.543-.478-1.245-9.182 4.377-1.662 53.3-19.799a14.1 14.1 0 0 1 12.076 1.018c3.651 2.12 6.141 5.734 6.846 9.91 1.826 10.948 5.353 18.49 9.461 20.255 15.997 4.633 60.313 12.631 77.596-4.55 4.959-4.923 12.926-5.67 18.943-1.786 16.93 11.01 56.205 42.547 55.354 97.829-.062 2.243-2.199 52.331-52.429 74.186l-6.577 21.689c-1.556 5.152-6.224 8.622-11.619 8.622m-63.072-36.273h22.386a15.206 15.206 0 0 1 14.98 12.548l2.096 11.676c.041.27.29.477.581.477h23.05c.27 0 .477-.166.56-.415l8.175-26.945 2.572-1.039c45.583-18.344 47.699-62.906 47.761-64.796.747-49.382-34.773-77.885-50.084-87.836-1.473-.956-3.361-.831-4.482.29-25.789 25.616-86.683 8.123-89.256 7.355l-.456-.146c-8.548-3.282-14.233-13.13-16.909-29.25a2.52 2.52 0 0 0-1.245-1.787 2.62 2.62 0 0 0-2.241-.187L66.57 64.979c4.523 2.368 8.175 5.484 10.913 9.37 7.864 11.114 4.917 24.077 4.793 24.617-.747 3.117-3.86 5.028-6.95 4.301a5.773 5.773 0 0 1-4.295-6.939c.041-.166 1.12-5.36-.726-10.824-25.54 15.374-35.188 37.707-38.695 49.922-2.095 7.271-9.108 12.154-16.722 11.53l-2.22-.166a1.1 1.1 0 0 0-.83.332 1 1 0 0 0-.249.852l9.461 53.184a.993.993 0 0 0 1.266.768l6.14-1.828a16.03 16.03 0 0 1 17.823 6.295c13.175 19.196 49.919 25.408 50.292 25.47l3.901.644 4.875 22.998c.062.27.291.457.56.457h21.329c.27 0 .498-.187.56-.436l3.527-13.006c1.785-6.627 7.822-11.26 14.689-11.26"/><path fill="#023927" d="M73.789 131.478c0 6.191-5 11.198-11.183 11.198s-11.183-5.007-11.183-11.198 5-11.197 11.183-11.197 11.183 5.006 11.183 11.197"/></g><defs><clipPath id="a"><path fill="#fff" d="M0 0h280v280H0z"/></clipPath></defs></svg>
